X:1
T:Gaudeamus Igitur
T:Gaudeamus Igitur
T:Traditional - Music by J. Brahms (1833 - 1897)
C:Traditional - Music by J. Brahms (1833 - 1897)
%%score 1 2 3 4
L:1/8
Q:1/4=110
M:3/4
K:C
V:1 treble nm="Soprano" snm="S"
V:2 treble nm="Alto" snm="A"
V:3 treble-8 nm="Tenor" snm="T"
V:4 bass nm="Bass" snm="B"
V:1
"^Allegro" c>G G2 c2 | A>A A2 z2 | B>c d2 B2 | ce c2 z2 :| B>c d2 d2 | ec d2 d2 | B>c d2 d2 | %7
w: Gau- de- a- mus|i- gi- tur,|ju- ve- nes dum|su * mus,|Post Ju- cun- nam|ju- ven- tu- tem,|post mo- le- stam|
 ec d2 d2 | c>B Af ed | g2 _a2 =a2 | c>B Af ed | g2 B2 !fermata!c2 |] %12
w: se- nec- tu- tem,|nos ha- be * bi- it|hu * mus,|nos ha- be * bi- it|hu * mus.|
V:2
 c>G G2 E2 | A>G A2 z2 | B>A G2 G2 | cG c2 z2 :| G>A B2 B2 | cA B2 B2 | G>A B2 B2 | cA B2 B2 | %8
w: Gau- de- a- mus|i- gi- tur,|ju- ve- nes dum|su * mus,|Post Ju- cun- nam|ju- ven- tu- tem,|post mo- le- stam|se- nec- tu- tem,|
 A>B cc cc | e2 d2 c2 | A>E FA AA | G2 G2 !fermata!c2 |] %12
w: nos ha- be * bit *|hu * mus,|nos ha- be * bit *|hu * mus.|
V:3
 G>G c2 G2 | A>B c2 z2 | B>A B2 B2 | c2 c2 z2 :| B>c d2 d2 | cA B2 G2 | B>c d2 d2 | cA B2 G2 | %8
w: Gau- de- a- mus|i- gi- tur,|ju- ve- nes dum|su- mus,|Post Ju- cun- nam|ju- ven- tu- tem,|post mo- le- stam|se- nec- tu- tem,|
 c>c cc cc | c2 B2 A2 | c>G A2 cc | e2 d2 !fermata!e2 |] %12
w: nos ha- be * bi- it|hu * mus,|nos ha- be- bi- it|hu * mus.|
V:4
 C,>C, C,2 C,2 | F,>F, F,2 z2 | G,4 G,,2 | C,2 C,2 z2 :| G,>G, G,2 G,2 | G,D, D,2 G,2 | %6
w: Gau- de- a- mus|i- gi- tur,|juvenes dum|su- mus,|Post Ju- cun- nam|ju- ven- tu- tem,|
 G,>G, G,2 G,2 | G,D, D,2 G,2 | A,>G, F,F, F,F, | A,,2 _A,,2 =A,,2 | E,>E, F,2 F,F, | %11
w: post mo- le- stam|se- nec- tu- tem,|nos ha- be * bi- it|hu * mus,|nos ha- be- bi- it|
 G,2 G,,2 !fermata!E,2 |] %12
w: hu * mus.|

